X:1
T:Title
%%score { ( 1 3 ) | 2 }
L:1/8
M:4/4
K:C
V:1 treble nm="Grand Piano"
V:3 treble 
V:2 bass 
V:1
 z4 z2[Q:1/4=82] [EG][EG] | [FA]>[FA] [EG][_E^F] [=EG][CE][D=F][_E^F] | %2
 [EG][Ec] [_EB]>[EA] [=EG]2 [EG][EG] | A>c BA AGce |[M:7/8] edc [^Fe] d3 |[M:1/4] GG | %6
[M:4/4] cGFE DC[G,CE][CEG] | [CFA]2 [CFA]2 [CEG]2 [CGc][CGc] | [Ad][Ac] .[GB]>D A[EG]Ac | %9
[M:7/8] c2 B2 [Ec]3 |] %10
V:2
 z4 z2 [C,C][C,C] | [C,C]>[C,C] [C,C][C,C] [C,C][C,G,][C,B,][C,A,] | %2
 [C,G,][C,G,] [C,^F,]>[C,F,] [C,G,]2 [C,C][C,C] | %3
 [F,CF]>[F,A,F] [^F,B,_E][F,CE][K:treble] [G,C=E][G,CE][G,E][G,CG] | %4
[M:7/8] [A,C^F][A,DF][A,EF][K:bass] [D,C] [G,B,G]3 |[M:1/4] G,G, |[M:4/4] CG,F,E, D,C,C,C, | %7
 F,2 F,2 C,2 E,E, | [F,A,][F,A,] [G,B,][A,C]/B,/ [CE][C,C][K:treble][F,CF][A,CF] | %9
[M:7/8] [G,CE]2 [G,F]2[K:bass] [C,G,]3 |] %10
V:3
 x8 | x8 | x8 | x8 |[M:7/8] x7 |[M:1/4] x2 |[M:4/4] x8 | x8 | z2 z [FA] z4 |[M:7/8] x7 |] %10

